128x128/apps/7zip.svg

<svg height="64" viewBox="0 0 16.933333 16.933334" width="64" xmlns="http://www.w3.org/2000/svg" xmlns:xlink="http://www.w3.org/1999/xlink"><linearGradient id="a" gradientUnits="userSpaceOnUse" x1="6.500959" x2="10.427278" y1="6.328978" y2="10.255297"><stop offset="0" stop-color="#ffdc0a"/><stop offset="1" stop-color="#ffd20a"/></linearGradient><g transform="translate(-.325363)"><rect fill="url(#a)" height="14.552084" ry="3.439583" stroke-width=".561972" width="14.552084" x="1.515988" y="1.190625"/><g fill="#00a2ef" transform="matrix(1.0000197 0 0 1.0000197 -26.408744 1.302777)"><path d="m34.671 7.0315v1.7198c0 .07329.059.13229.13229.13229h.79374c.07329 0 .13229-.059.13229-.13229v-1.7198zm.26458 1.0583h.52916v.52916h-.52916z"/><path d="m35.2-.11215v.52916h.52916v-.52916zm0 .52916h-.52916v.52916h.52916zm0 .52916v.52916h.52916v-.52916zm0 .52916h-.52916v.52916h.52916zm0 .52916v.52916h.52916v-.52916zm0 .52916h-.52916v.52916h.52916zm0 .52916v.52916h.52916v-.52916zm0 .52916h-.52916v.52916h.52916zm0 .52916v.52916h.52916v-.52916zm0 .52916h-.52916v.52916h.52916zm0 .52916v.52916h.52916v-.52916zm0 .52916h-.52916v.52916h.52916zm0 .52916v.52916h.52916v-.52916z"/></g></g><g transform="matrix(.89515042 0 0 .89515042 .161643 1.991493)"><path d="m1.2831 6.2802 5.1382-.81587c.49552-.078682.90565.40392.90565.90565v7.0426c0 .50173-.40722.9631-.90565.90565l-5.1382-.59222c-.49843-.057448-.90565-.40392-.90565-.90565v-5.6345c0-.50173.41013-.82697.90565-.90565z" fill="#00a2ef" stroke-width=".79501"/><g fill="#fff" transform="translate(-.054419 -.26889)"><path d="m1.4016 8.2033h2.5142v.22523l-1.4195 3.6849h-.55261l1.3357-3.4649h-1.8778z"/><path d="m4.1226 9.1802h2.289v.43999l-1.8123 2.1083h1.8123v.38499h-2.3545v-.43999l1.8123-2.1083h-1.7469z"/></g></g></svg>

<?xml version="1.0" encoding="UTF-8" standalone="no"?>
<svg
   xmlns:dc="http://purl.org/dc/elements/1.1/"
   xmlns:cc="http://creativecommons.org/ns#"
   xmlns:rdf="http://www.w3.org/1999/02/22-rdf-syntax-ns#"
   xmlns:svg="http://www.w3.org/2000/svg"
   xmlns="http://www.w3.org/2000/svg"
   xmlns:xlink="http://www.w3.org/1999/xlink"
   xmlns:sodipodi="http://sodipodi.sourceforge.net/DTD/sodipodi-0.dtd"
   xmlns:inkscape="http://www.inkscape.org/namespaces/inkscape"
   width="64"
   height="64"
   viewBox="0 0 16.933333 16.933334"
   version="1.1"
   id="svg8"
   inkscape:version="1.0.2 (e86c870879, 2021-01-15)"
   sodipodi:docname="7zip.svg">
  <defs
     id="defs2">
    <linearGradient
       id="linearGradient1049"
       x1="35.889"
       x2="35.889"
       y1="14.865"
       y2="31.173"
       gradientTransform="matrix(1.5625,0,0,1.5625,-8.1072,-10.908)"
       gradientUnits="userSpaceOnUse">
      <stop
         stop-color="#ff1e32"
         offset="0"
         id="stop23" />
      <stop
         stop-color="#ff5064"
         offset="1"
         id="stop25" />
    </linearGradient>
    <linearGradient
       id="linearGradient1067"
       x1="34.426998"
       x2="34.426998"
       y1="32.234001"
       y2="39.768002"
       gradientTransform="matrix(1,0,0,1.2271,5.7554,-25.761)"
       gradientUnits="userSpaceOnUse"
       xlink:href="#linearGradient1057" />
    <linearGradient
       id="linearGradient1057">
      <stop
         stop-color="#fff"
         offset="0"
         id="stop4" />
      <stop
         stop-color="#fff"
         stop-opacity="0"
         offset="1"
         id="stop6" />
    </linearGradient>
    <linearGradient
       id="linearGradient1047"
       x1="15.245"
       x2="15.245"
       y1="27.216999"
       y2="10.98"
       gradientTransform="matrix(1.5625,0,0,1.5625,-9.2253,1.3231)"
       gradientUnits="userSpaceOnUse">
      <stop
         stop-color="#14dc78"
         offset="0"
         id="stop18" />
      <stop
         stop-color="#14a03c"
         offset="1"
         id="stop20" />
    </linearGradient>
    <linearGradient
       id="linearGradient1063"
       x1="34.426998"
       x2="34.426998"
       y1="32.234001"
       y2="39.768002"
       gradientTransform="matrix(1,0,0,1.2271,-12.55,-19.793)"
       gradientUnits="userSpaceOnUse"
       xlink:href="#linearGradient1057" />
    <linearGradient
       id="linearGradient982"
       x1="16.919001"
       x2="16.919001"
       y1="37.106998"
       y2="21.003"
       gradientTransform="matrix(1.5625,0,0,1.5625,0.40633,-5.1891)"
       gradientUnits="userSpaceOnUse">
      <stop
         stop-color="#32b4ff"
         offset="0"
         id="stop9" />
      <stop
         stop-color="#0c35f9"
         offset="1"
         id="stop11" />
    </linearGradient>
    <linearGradient
       id="linearGradient1059"
       x1="34.426998"
       x2="34.426998"
       y1="32.234001"
       y2="39.768002"
       gradientTransform="matrix(1,0,0,1.2271,0.20646,-10.975)"
       gradientUnits="userSpaceOnUse"
       xlink:href="#linearGradient1057" />
    <filter
       id="filter3001"
       x="-0.029503001"
       y="-0.046935"
       width="1.059"
       height="1.0939"
       color-interpolation-filters="sRGB">
      <feGaussianBlur
         stdDeviation="0.23473412"
         id="feGaussianBlur148" />
    </filter>
    <linearGradient
       id="linearGradient2349"
       x1="33.337002"
       x2="31.709999"
       y1="42.984001"
       y2="26.577"
       gradientTransform="translate(108.61981,-4.85e-4)"
       gradientUnits="userSpaceOnUse">
      <stop
         stop-color="#aaf8ad"
         offset="0"
         id="stop151" />
      <stop
         stop-color="#fff"
         offset="1"
         id="stop153" />
    </linearGradient>
    <linearGradient
       inkscape:collect="always"
       xlink:href="#linearGradient2114"
       id="linearGradient2116"
       x1="23.340836"
       y1="23.920546"
       x2="38.180466"
       y2="38.760178"
       gradientUnits="userSpaceOnUse"
       gradientTransform="matrix(0.26458333,0,0,0.26458333,0.3253628,-3e-7)" />
    <linearGradient
       inkscape:collect="always"
       id="linearGradient2114">
      <stop
         style="stop-color:#ffdc0a;stop-opacity:1"
         offset="0"
         id="stop2110" />
      <stop
         style="stop-color:#ffd20a;stop-opacity:1"
         offset="1"
         id="stop2112" />
    </linearGradient>
  </defs>
  <sodipodi:namedview
     id="base"
     pagecolor="#ffffff"
     bordercolor="#666666"
     borderopacity="1.0"
     inkscape:pageopacity="0.0"
     inkscape:pageshadow="2"
     inkscape:zoom="3.959798"
     inkscape:cx="37.630452"
     inkscape:cy="34.438644"
     inkscape:document-units="mm"
     inkscape:current-layer="layer1"
     inkscape:document-rotation="0"
     showgrid="false"
     units="px"
     inkscape:window-width="1920"
     inkscape:window-height="992"
     inkscape:window-x="0"
     inkscape:window-y="0"
     inkscape:window-maximized="1" />
  <metadata
     id="metadata5">
    <rdf:RDF>
      <cc:Work
         rdf:about="">
        <dc:format>image/svg+xml</dc:format>
        <dc:type
           rdf:resource="http://purl.org/dc/dcmitype/StillImage" />
        <dc:title></dc:title>
      </cc:Work>
    </rdf:RDF>
  </metadata>
  <g
     inkscape:label="图层 1"
     inkscape:groupmode="layer"
     id="layer1">
    <g
       id="g2432">
      <g
         id="g2420"
         transform="translate(-0.32536319)">
        <rect
           style="fill:url(#linearGradient2116);fill-opacity:1;stroke-width:0.561972"
           id="rect2106"
           width="14.552084"
           height="14.552084"
           x="1.5159879"
           y="1.1906246"
           ry="3.4395833" />
        <g
           transform="matrix(1.0000197,0,0,1.0000197,-26.408744,1.302777)"
           fill="#00a2ef"
           id="g1427">
          <path
             d="m 34.671,7.0315 v 1.7198 c 0,0.07329 0.059,0.13229 0.13229,0.13229 h 0.79374 c 0.07329,0 0.13229,-0.059 0.13229,-0.13229 V 7.0315 Z m 0.26458,1.0583 h 0.52916 v 0.52916 h -0.52916 z"
             color="#000000"
             id="path1423" />
          <path
             d="m 35.2,-0.11215 v 0.52916 h 0.52916 v -0.52916 z m 0,0.52916 H 34.67084 V 0.94617 H 35.2 Z m 0,0.52916 v 0.52916 h 0.52916 V 0.94617 Z m 0,0.52916 H 34.67084 V 2.00449 H 35.2 Z m 0,0.52916 v 0.52916 h 0.52916 V 2.00449 Z m 0,0.52916 H 34.67084 V 3.06281 H 35.2 Z m 0,0.52916 v 0.52916 h 0.52916 V 3.06281 Z m 0,0.52916 H 34.67084 V 4.12113 H 35.2 Z m 0,0.52916 v 0.52916 h 0.52916 V 4.12113 Z m 0,0.52916 H 34.67084 V 5.17945 H 35.2 Z m 0,0.52916 v 0.52916 h 0.52916 V 5.17945 Z m 0,0.52916 H 34.67084 V 6.23777 H 35.2 Z m 0,0.52916 v 0.52916 h 0.52916 V 6.23777 Z"
             color="#000000"
             id="path1425" />
        </g>
      </g>
      <g
         id="g1437"
         transform="matrix(0.89515042,0,0,0.89515042,0.16164349,1.9914927)">
        <path
           d="M 1.2831,6.2802 6.4213,5.46433 C 6.91682,5.385648 7.32695,5.86825 7.32695,6.36998 v 7.0426 c 0,0.50173 -0.40722,0.9631 -0.90565,0.90565 L 1.2831,13.72601 C 0.78467,13.668562 0.37745,13.32209 0.37745,12.82036 v -5.6345 c 0,-0.50173 0.41013,-0.82697 0.90565,-0.90565 z"
           fill="#00a2ef"
           stroke-width="0.79501"
           id="path1429" />
        <g
           transform="translate(-0.054419,-0.26889)"
           fill="#ffffff"
           id="g1435">
          <path
             d="m 1.4016,8.2033 h 2.5142 v 0.22523 l -1.4195,3.6849 H 1.94369 l 1.3357,-3.4649 h -1.8778 z"
             id="path1431" />
          <path
             d="m 4.1226,9.1802 h 2.289 v 0.43999 l -1.8123,2.1083 h 1.8123 v 0.38499 H 4.0571 V 11.67349 L 5.8694,9.56519 H 4.1225 Z"
             id="path1433" />
        </g>
      </g>
    </g>
  </g>
</svg>
